icons/1_Primary/Mailo.svg

<svg xmlns="http://www.w3.org/2000/svg" width="1024" height="1024" fill="none">
   <g clip-path="url(#a)">
      <path fill="#FF837D" d="M512 1024c282.77 0 512-229.23 512-512S794.77 0 512 0 0 229.23 0 512s229.23 512 512 512Z"/>
      <path fill="#fff" d="m754.5 532.3-84.8-145.6-2.5-3.8c-8.9-15.2-20.3-36.7-43.1-44.3-25.3-8.9-60.8-1.3-78.5 27.9L531.7 388l-20.3 38c-16.5-29.1-29.1-53.2-32.9-59.5-17.7-29.1-53.2-35.5-78.5-27.9-22.8 7.6-34.2 27.9-43.1 44.3l-87.4 149.4c-27.9 48.1-11.4 111.4 36.7 139.3l6.3 3.8c48.1 27.9 111.4 11.4 139.3-38L510 529.8c22.8 41.8 45.6 83.6 59.5 107.6 19 32.9 53.2 50.7 88.6 50.7 17.7 0 35.5-3.8 50.7-13.9l6.3-3.8c50.8-26.7 67.3-88.7 39.4-138.1Zm-345.7 81.1c-13.9 24.1-45.6 32.9-69.6 19l-6.3-3.8c-24.1-13.9-32.9-45.6-19-69.6l84.8-147 2.5-5.1c3.8-6.3 10.1-19 13.9-20.3 1.3 0 3.8-1.3 5.1-1.3 5.1 0 11.4 1.3 13.9 6.3 5.1 7.6 24.1 43.1 48.1 86.1l-73.4 135.7Zm282.4 15.1-6.3 3.8c-24.1 13.9-57 5.1-70.9-17.7-2.5-5.1-39.3-72.2-74.7-135.5l36.7-65.8 12.7-21.5c5.1-7.6 15.2-7.6 20.3-6.3 3.8 1.3 11.4 13.9 15.2 20.3l87.4 150.7c12.5 26.5 3.7 58.1-20.4 72Z"/>
   </g>
   <defs>
      <clipPath id="a">
         <path fill="#fff" d="M0 0h1024v1024H0z"/>
      </clipPath>
   </defs>
</svg>

<svg width="1024" height="1024" viewBox="0 0 1024 1024" fill="none" xmlns="http://www.w3.org/2000/svg">
<g clip-path="url(#clip0_2_2745)">
<path d="M512 1024C794.77 1024 1024 794.77 1024 512C1024 229.23 794.77 0 512 0C229.23 0 0 229.23 0 512C0 794.77 229.23 1024 512 1024Z" fill="#FF837D"/>
<path d="M754.5 532.3L669.7 386.7L667.2 382.9C658.3 367.7 646.9 346.2 624.1 338.6C598.8 329.7 563.3 337.3 545.6 366.5L531.7 388L511.4 426C494.9 396.9 482.3 372.8 478.5 366.5C460.8 337.4 425.3 331 400 338.6C377.2 346.2 365.8 366.5 356.9 382.9L269.5 532.3C241.6 580.4 258.1 643.7 306.2 671.6L312.5 675.4C360.6 703.3 423.9 686.8 451.8 637.4L510 529.8C532.8 571.6 555.6 613.4 569.5 637.4C588.5 670.3 622.7 688.1 658.1 688.1C675.8 688.1 693.6 684.3 708.8 674.2L715.1 670.4C765.9 643.7 782.4 581.7 754.5 532.3ZM408.8 613.4C394.9 637.5 363.2 646.3 339.2 632.4L332.9 628.6C308.8 614.7 300 583 313.9 559L398.7 412L401.2 406.9C405 400.6 411.3 387.9 415.1 386.6C416.4 386.6 418.9 385.3 420.2 385.3C425.3 385.3 431.6 386.6 434.1 391.6C439.2 399.2 458.2 434.7 482.2 477.7L408.8 613.4ZM691.2 628.5L684.9 632.3C660.8 646.2 627.9 637.4 614 614.6C611.5 609.5 574.7 542.4 539.3 479.1L576 413.3L588.7 391.8C593.8 384.2 603.9 384.2 609 385.5C612.8 386.8 620.4 399.4 624.2 405.8L711.6 556.5C724.1 583 715.3 614.6 691.2 628.5Z" fill="white"/>
</g>
<defs>
<clipPath id="clip0_2_2745">
<rect width="1024" height="1024" fill="white"/>
</clipPath>
</defs>
</svg>
